<?xml version="1.0" encoding="UTF-8"?>
<map version="1.10" tiledversion="1.12.2" orientation="orthogonal" renderorder="right-down" width="22" height="12" tilewidth="64" tileheight="64" infinite="0" nextlayerid="8" nextobjectid="82">
 <tileset firstgid="1" source="tileset.tsx"/>
 <layer id="4" name="fondo" width="22" height="12">
  <data encoding="csv">
0,0,0,0,0,0,0,0,0,0,0,0,0,0,0,0,0,0,0,0,0,0,
0,0,0,0,0,0,0,0,0,0,0,0,0,0,0,0,0,0,0,0,0,0,
0,0,0,0,0,0,0,0,0,0,0,0,0,0,0,0,0,0,0,0,0,0,
0,0,0,0,0,0,0,0,0,0,0,0,0,0,0,0,0,0,0,0,0,0,
0,0,0,0,0,0,0,0,0,0,0,0,0,0,0,0,0,0,0,0,0,0,
0,0,0,0,0,0,0,0,0,0,0,0,0,0,0,0,0,0,0,0,0,0,
0,0,0,0,0,0,0,0,0,0,0,0,0,0,0,0,0,0,0,0,0,0,
0,0,0,0,0,0,0,0,0,0,0,0,0,0,0,0,0,0,0,0,0,0,
0,0,0,0,0,0,0,0,0,0,0,0,0,0,0,0,0,0,0,0,0,0,
0,0,0,0,0,0,0,0,0,0,0,0,0,0,0,0,0,0,0,0,0,0,
0,0,0,0,0,0,0,0,0,0,0,0,0,0,0,0,0,0,0,0,0,0,
19,0,0,0,0,0,0,0,0,0,0,0,0,0,0,0,0,0,0,0,0,0
</data>
 </layer>
 <layer id="1" name="Capa de patrones 1" width="22" height="12">
  <data encoding="csv">
0,0,0,0,0,0,0,0,0,0,0,0,0,0,0,0,0,0,0,0,0,0,
0,0,0,0,0,0,0,0,0,0,0,0,0,0,0,0,0,0,0,0,0,0,
0,0,0,0,0,0,0,0,0,0,0,0,0,0,0,0,0,0,0,0,0,0,
0,0,0,0,0,0,0,0,0,0,0,0,0,0,0,0,0,0,0,0,0,0,
0,0,0,0,0,8,8,8,8,0,0,0,0,0,8,8,8,8,0,0,0,0,
0,0,0,0,0,0,0,0,0,0,0,0,0,0,0,0,0,0,0,0,0,0,
0,0,0,0,0,0,0,0,0,0,0,0,0,0,0,0,0,0,0,0,0,0,
6,0,0,0,0,0,0,0,0,0,0,0,0,0,0,0,0,0,0,0,0,0,
5,8,8,8,0,0,0,0,0,0,0,0,0,0,0,0,0,0,8,8,8,8,
5,5,5,5,8,8,8,8,8,8,6,0,7,8,8,8,8,8,5,5,5,5,
5,5,5,5,5,5,5,5,5,5,6,0,7,5,5,5,5,5,5,5,5,5,
5,5,5,5,5,5,5,5,5,5,6,0,7,5,5,5,5,5,5,5,5,5
</data>
 </layer>
 <layer id="2" name="paredes" width="22" height="12">
  <data encoding="csv">
6,0,0,0,0,0,0,0,0,0,0,0,0,0,0,0,0,0,0,0,0,7,
6,0,0,0,0,0,0,0,0,0,0,0,0,0,0,0,0,0,0,0,0,7,
6,0,0,0,0,0,0,0,0,0,0,0,0,0,0,0,0,0,0,0,0,7,
6,0,0,0,0,0,0,0,0,0,0,0,0,0,0,0,0,0,0,0,0,7,
6,0,0,0,0,0,0,0,0,0,0,0,0,0,0,0,0,0,0,0,0,7,
6,0,0,0,0,0,0,0,0,0,0,0,0,0,0,0,0,0,0,0,0,7,
6,0,0,0,0,0,0,0,0,0,0,0,0,0,0,0,0,0,0,0,0,7,
0,0,0,0,0,0,0,0,0,0,0,0,0,0,0,0,0,0,0,0,0,7,
8,0,0,7,0,0,0,0,0,0,0,0,0,0,0,0,0,0,6,0,0,0,
0,0,0,0,0,0,0,0,0,0,0,0,0,0,0,0,0,0,0,0,0,0,
0,0,0,0,0,0,0,0,0,0,0,0,0,0,0,0,0,0,0,0,0,0,
0,0,0,0,0,0,0,0,0,0,0,0,0,0,0,0,0,0,0,0,0,0
</data>
 </layer>
 <objectgroup id="7" name="objetos">
  <object id="55" name="spawn_capuccino" type=" spawnCapuccino" x="128" y="384" width="64" height="128"/>
  <object id="56" type="spawnBallerina" x="0" y="384" width="64" height="128"/>
  <object id="63" type="palanca" x="512" y="512" width="64" height="64"/>
  <object id="65" name="puerta" type="puerta" x="1216" y="320" width="128" height="192"/>
  <object id="75" name="liana" x="701.815" y="-191.992" width="64" height="1088.23" rotation="359.783"/>
  <object id="77" name="barril" x="384" y="512" width="64" height="64"/>
  <object id="80" name="peligro" x="896" y="544" width="64" height="32"/>
 </objectgroup>
</map>
